X:2
T:Scarborough Fair - harmony part only
M:3/4
L:1/4
K:Cdor
%%score  1 2 
%%MIDI program 1       74 flute
%%MIDI program 2       73 piccolo
[V:1]
||:z3|z z C|B, C B, | E D C|C C B, |
w:Ask him to find me an ac-re of land_
w:Ask him to plough it with a lamb's_ horn
w:Ask him to reap it with a sickle of leather
G,3|z3|z3|BcB|A G A|B A F|
w:_Par_sley, sage,_ rose-ma-ry and
 G3| z3| z z z|B, C B,|F2 F|B,/2C/2 D E|
w: thyme   Be-tween the  salt wa-ter_ and the
w:* And sow it all over with_ one pep-
w:* And gather it up with a rope made of
 C C2| z3|z3|E D E |F E D|E D B,|C3:||
w: sea-sand For then he'll be a true lo-ver of mine
w:per-corn
w:hea-ther
[V:2]
||:C2 C|G2 G|D>E D|C3-|C3|z G B|c2 B|G A F|G3-|G3-|G3|
w:Tell~her to make~me a cam_bric shirt_ Par-sley, sage, rose-ma-ry and thyme
w:Tell~her to wash~it in yon-der dry well_
w:Tell~her to dry~it on yon_der thorn_
z2 c|c2 c|B2 G|G F E|D B,2-|B,2 z|
w:With-out any seam nor need_le-work_
w:Which never sprung water nor rain e-ver fell_
w:Which never bore blossom since A-dam was born_
C2 G|F2 E|D C B,|C3-|C3-|C3-|C3:||
w:Then she'll be a true love of mine
